svgs/sharp-solid/square-sliders-vertical.svg

<svg xmlns="http://www.w3.org/2000/svg" viewBox="0 0 448 512"><!--! Font Awesome Pro 6.6.0 by @fontawesome - https://fontawesome.com License - https://fontawesome.com/license (Commercial License) Copyright 2024 Fonticons, Inc. --><path d="M0 32l448 0 0 448L0 480 0 32zM176 96l-64 0 0 32 0 32-16 0-32 0 0 64 32 0 16 0 0 160 0 32 64 0 0-32 0-160 16 0 32 0 0-64-32 0-16 0 0-32 0-32zm160 32l0-32-64 0 0 32 0 160-16 0-32 0 0 64 32 0 16 0 0 32 0 32 64 0 0-32 0-32 16 0 32 0 0-64-32 0-16 0 0-160z"/></svg>

<svg xmlns="http://www.w3.org/2000/svg" viewBox="0 0 448 512"><!--! Font Awesome Pro 6.4.0 by @fontawesome - https://fontawesome.com License - https://fontawesome.com/license (Commercial License) Copyright 2023 Fonticons, Inc. --><path d="M0 32H448V480H0V32zM176 96H112v32 32H96 64v64H96h16V384v32h64V384 224h16 32V160H192 176V128 96zm160 32V96H272v32V288H256 224v64h32 16v32 32h64V384 352h16 32V288H352 336V128z"/></svg>
